!! 00000] TT[
!!!OTL: Cai Cha yao
!!!ARE: Asia, China,ÿJiangxi
!! Ethnic Group: Han
!! MM
!!!SCT: C1308
!!!YEM: Copyright 1995, estate of Helmut Schaffrath.
**kern
*ICvox
*Ivox
*M2/4
*k[]
*C:
{8c
8A
8c
8d
=1
4.e
8d
=2
2e}
=3
{8d
8g
8e
8d
=4
4.c
8A
=5
2c}
=6
{4c
4e
=7
8d
8e
8d
8c
=8
4A
8G
8A}
=9
{4c
8d
8c
=10
4.A
8G
=11
2A}
==
!!!AGN: Xiaodiao, Chage, Wuge, Caicha. Chanong Shenghuo
!! Pinyin-Text der ersten Strophe vorhanden!
!!!ONB: ESAC (Essen Associative Code) Database: CHINA
!!!AMT: simple duple
!!!AIN: vox
!!!EED: Helmut Schaffrath
!!!EEV: 1.0
*-
!!!OTL: Dianhu wugeng han
!!!ARE: Asia, China,ÿHubei, Macheng
!! I, 454
!!!SCT: C1457
!!!YEM: Copyright 1995, estate of Helmut Schaffrath.
**kern
*ICvox
*Ivox
*M2/4
*k[f#]
*G:
{16b
16dd
8dd
8b
8b
=1
2dd
=2
8dd
16dd
16ee
16dd
16r
16dd
16b
=3
2a}
=4
{8dd
16a
16b
8dd
8dd
=5
8a
16b
16dd
8.g
16f#
=6
8e
16a
16b
8.g
16e
=7
2d}
==
!!!AGN: Xiaodiao. Suku
!!!ONB: ESAC (Essen Associative Code) Database: HUANG
!!!AMT: simple duple
!!!AIN: vox
!!!EED: Helmut Schaffrath
!!!EEV: 1.0
*-
